svg/icons/src/icon-youtube.svg

<?xml version="1.0" encoding="UTF-8"?>
<svg width="32px" height="32px" viewBox="0 0 32 32" version="1.1" xmlns="http://www.w3.org/2000/svg" xmlns:xlink="http://www.w3.org/1999/xlink">
    <!-- Generator: Sketch 52.5 (67469) - http://www.bohemiancoding.com/sketch -->
    <title>icon-youtube</title>
    <desc>Created with Sketch.</desc>
    <g id="icon-youtube" stroke="none" stroke-width="1" fill="none" fill-rule="evenodd">
        <path d="M12.9025,20.0570045 L12.9015625,11.2685389 L21.0071875,15.6779226 L12.9025,20.0570045 Z M30.7,9.74563488 C30.7,9.74563488 30.4065625,7.59030524 29.5075,6.641178 C28.3665625,5.39489935 27.0878125,5.38903441 26.501875,5.31670165 C22.30375,5 16.0065625,5 16.0065625,5 L15.9934375,5 C15.9934375,5 9.69625,5 5.498125,5.31670165 C4.91125,5.38903441 3.6334375,5.39489935 2.4915625,6.641178 C1.5925,7.59030524 1.3,9.74563488 1.3,9.74563488 C1.3,9.74563488 1,12.2772914 1,14.8079708 L1,17.1812771 C1,19.7129335 1.3,22.2436129 1.3,22.2436129 C1.3,22.2436129 1.5925,24.3989426 2.4915625,25.3480692 C3.6334375,26.5943485 5.1325,26.5552493 5.8,26.6852538 C8.2,26.9257118 16,27 16,27 C16,27 22.30375,26.9902255 26.501875,26.6735239 C27.0878125,26.6002134 28.3665625,26.5943485 29.5075,25.3480692 C30.4065625,24.3989426 30.7,22.2436129 30.7,22.2436129 C30.7,22.2436129 31,19.7129335 31,17.1812771 L31,14.8079708 C31,12.2772914 30.7,9.74563488 30.7,9.74563488 Z" id="Youtube" fill="#2333FF" fill-rule="nonzero"></path>
    </g>
</svg>

<svg width="32" height="32" xmlns="http://www.w3.org/2000/svg"><path d="M12.902 20.057v-8.788l8.105 4.409-8.105 4.379zM30.7 9.746s-.293-2.156-1.192-3.105c-1.141-1.246-2.42-1.252-3.006-1.324C22.304 5 16.007 5 16.007 5h-.014s-6.297 0-10.495.317c-.587.072-1.865.078-3.006 1.324-.9.95-1.192 3.105-1.192 3.105S1 12.277 1 14.808v2.373c0 2.532.3 5.063.3 5.063s.292 2.155 1.192 3.104c1.141 1.246 2.64 1.207 3.308 1.337C8.2 26.925 16 27 16 27s6.304-.01 10.502-.326c.586-.074 1.865-.08 3.006-1.326.899-.95 1.192-3.104 1.192-3.104s.3-2.531.3-5.063v-2.373c0-2.53-.3-5.062-.3-5.062z" fill="#2333FF"/></svg>
